public/assets/imgs/page/homepage2/icon-work.svg

<svg width="64" height="64" viewBox="0 0 64 64" fill="none" xmlns="http://www.w3.org/2000/svg">
<circle cx="32" cy="32" r="32" fill="#E4E7EC"/>
<g clip-path="url(#clip0_57_1325)">
<path d="M19.3153 28.2647C19.0819 27.8317 18.9737 27.3422 19.003 26.8512C19.0323 26.3602 19.1978 25.887 19.481 25.4848C19.9439 24.8057 20.5638 24.2483 21.288 23.8598L29.4141 19.6305C30.2128 19.2152 31.0998 18.9984 32 18.9984C32.9003 18.9984 33.7872 19.2152 34.5859 19.6305L42.7109 23.8631C43.4352 24.2515 44.0551 24.809 44.5179 25.4881C44.8012 25.8903 44.9667 26.3634 44.996 26.8544C45.0253 27.3455 44.9171 27.8349 44.6837 28.2679C44.4324 28.7433 44.0554 29.1406 43.5939 29.4167C43.1325 29.6927 42.6041 29.8368 42.0664 29.8333H21.9337C21.3955 29.8367 20.8666 29.6922 20.4049 29.4156C19.9432 29.1389 19.5662 28.7408 19.3153 28.2647ZM43.9167 42.8333C43.9167 42.2587 43.6884 41.7076 43.2821 41.3013C42.8758 40.8949 42.3247 40.6666 41.75 40.6666V32H39.5834V40.6666H36.3334V32H34.1667V40.6666H29.8334V32H27.6667V40.6666H24.4167V32H22.25V40.6666C21.6754 40.6666 21.1243 40.8949 20.718 41.3013C20.3116 41.7076 20.0834 42.2587 20.0834 42.8333C19.7961 42.8333 19.5205 42.9475 19.3173 43.1506C19.1142 43.3538 19 43.6293 19 43.9166C19 44.204 19.1142 44.4795 19.3173 44.6827C19.5205 44.8858 19.7961 45 20.0834 45H43.9167C44.204 45 44.4796 44.8858 44.6827 44.6827C44.8859 44.4795 45 44.204 45 43.9166C45 43.6293 44.8859 43.3538 44.6827 43.1506C44.4796 42.9475 44.204 42.8333 43.9167 42.8333Z" fill="#101828"/>
</g>
<defs>
<clipPath id="clip0_57_1325">
<rect width="26" height="26" fill="white" transform="translate(19 19)"/>
</clipPath>
</defs>
</svg>

<svg xmlns="http://www.w3.org/2000/svg" width="64" height="64" fill="none"><circle cx="32" cy="32" r="32" fill="#E4E7EC"/><g clip-path="url(#a)"><path fill="#101828" d="M19.315 28.265a2.647 2.647 0 0 1 .166-2.78 5.11 5.11 0 0 1 1.807-1.625l8.126-4.23a5.605 5.605 0 0 1 5.172 0l8.125 4.233a5.108 5.108 0 0 1 1.807 1.625 2.646 2.646 0 0 1 .166 2.78 2.94 2.94 0 0 1-2.618 1.565H21.934a2.939 2.939 0 0 1-2.619-1.568Zm24.602 14.568a2.167 2.167 0 0 0-2.167-2.166V32h-2.167v8.667h-3.25V32h-2.166v8.667h-4.334V32h-2.166v8.667h-3.25V32H22.25v8.667a2.166 2.166 0 0 0-2.167 2.166 1.084 1.084 0 0 0 0 2.167h23.834a1.083 1.083 0 0 0 0-2.167Z"/></g><defs><clipPath id="a"><path fill="#fff" d="M19 19h26v26H19z"/></clipPath></defs></svg>
